assets/img/components/table.svg

<svg width="272" height="143" viewBox="0 0 272 143" fill="none" xmlns="http://www.w3.org/2000/svg">
<rect width="272" height="143" rx="8" fill="#EDEDED"/>
<rect x="20" y="17.5" width="232" height="108" rx="6.5444" fill="white"/>
<path d="M100.917 41.5L100.917 115" stroke="#D0D0CE"/>
<path d="M171.083 41.5L171.083 115" stroke="#D0D0CE"/>
<path d="M41.0654 31.749C41.0654 30.0922 42.4086 28.749 44.0654 28.749H130.5C132.157 28.749 133.5 30.0922 133.5 31.749C133.5 33.4059 132.157 34.749 130.5 34.749H44.0654C42.4086 34.749 41.0654 33.4059 41.0654 31.749Z" fill="#A7A9AB"/>
<path d="M41.0654 54.7208C41.0654 53.3654 42.1642 52.2666 43.5196 52.2666H87.5458C88.9012 52.2666 90 53.3654 90 54.7208C90 56.0761 88.9012 57.1749 87.5459 57.1749H43.5196C42.1642 57.1749 41.0654 56.0761 41.0654 54.7208Z" fill="#467AA5"/>
<path d="M41.0654 78.5C41.0654 77.1447 42.1642 76.0459 43.5196 76.0459H68.1092C69.4646 76.0459 70.5633 77.1447 70.5633 78.5C70.5633 79.8554 69.4646 80.9542 68.1092 80.9542H43.5196C42.1642 80.9542 41.0654 79.8554 41.0654 78.5Z" fill="#D0D0CE"/>
<path d="M41.0654 102.779C41.0654 101.424 42.1642 100.325 43.5196 100.325H79.1233C80.4787 100.325 81.5774 101.424 81.5774 102.779C81.5774 104.135 80.4787 105.233 79.1233 105.233H43.5196C42.1642 105.233 41.0654 104.135 41.0654 102.779Z" fill="#D0D0CE"/>
<path d="M180.732 54.7208C180.732 53.3654 181.831 52.2666 183.187 52.2666H221.213C222.568 52.2666 223.667 53.3654 223.667 54.7208C223.667 56.0761 222.568 57.1749 221.213 57.1749H183.187C181.831 57.1749 180.732 56.0761 180.732 54.7208Z" fill="#467AA5"/>
<path d="M180.732 78.5C180.732 77.1447 181.831 76.0459 183.187 76.0459H227.776C229.132 76.0459 230.23 77.1447 230.23 78.5C230.23 79.8554 229.132 80.9542 227.776 80.9542H183.187C181.831 80.9542 180.732 79.8554 180.732 78.5Z" fill="#D0D0CE"/>
<path d="M180.732 102.779C180.732 101.424 181.831 100.325 183.187 100.325H218.79C220.146 100.325 221.244 101.424 221.244 102.779C221.244 104.135 220.146 105.233 218.79 105.233H183.187C181.831 105.233 180.732 104.135 180.732 102.779Z" fill="#D0D0CE"/>
<path d="M110.565 54.7208C110.565 53.3654 111.664 52.2666 113.02 52.2666H144.994C146.35 52.2666 147.448 53.3654 147.448 54.7208C147.448 56.0761 146.35 57.1749 144.994 57.1749H113.02C111.664 57.1749 110.565 56.0761 110.565 54.7208Z" fill="#467AA5"/>
<rect x="31.25" y="42" width="209.5" height="73" rx="2.5" stroke="#D0D0CE"/>
<path d="M110.565 78.5C110.565 77.1447 111.664 76.0459 113.02 76.0459H151.296C152.651 76.0459 153.75 77.1447 153.75 78.5C153.75 79.8554 152.651 80.9542 151.296 80.9542H113.02C111.664 80.9542 110.565 79.8554 110.565 78.5Z" fill="#D0D0CE"/>
<path d="M110.565 102.779C110.565 101.424 111.664 100.325 113.02 100.325H139.323C140.678 100.325 141.777 101.424 141.777 102.779C141.777 104.135 140.678 105.233 139.323 105.233H113.02C111.664 105.233 110.565 104.135 110.565 102.779Z" fill="#D0D0CE"/>
<path d="M30.75 66L241.25 66" stroke="#D0D0CE"/>
<path d="M30.75 90.5L241.25 90.5" stroke="#D0D0CE"/>
</svg>

<svg xmlns="http://www.w3.org/2000/svg" width="272" height="143" fill="none" viewBox="0 0 272 143"><rect width="272" height="143" fill="#ededed" rx="8"/><rect width="232" height="108" x="20" y="17.5" fill="#fff" rx="6.544"/><path stroke="#d0d0ce" d="M100.917 41.5V115M171.083 41.5V115"/><path fill="#a7a9ab" d="M41.065 31.749a3 3 0 0 1 3-3H130.5a3 3 0 1 1 0 6H44.065a3 3 0 0 1-3-3"/><path fill="#467aa5" d="M41.065 54.72a2.454 2.454 0 0 1 2.455-2.453h44.026a2.454 2.454 0 0 1 0 4.908H43.52a2.454 2.454 0 0 1-2.455-2.454"/><path fill="#d0d0ce" d="M41.065 78.5a2.454 2.454 0 0 1 2.455-2.454h24.59a2.454 2.454 0 0 1 0 4.908H43.52a2.454 2.454 0 0 1-2.455-2.454M41.065 102.779a2.454 2.454 0 0 1 2.455-2.454h35.603a2.454 2.454 0 0 1 0 4.908H43.52a2.454 2.454 0 0 1-2.455-2.454"/><path fill="#467aa5" d="M180.732 54.72a2.455 2.455 0 0 1 2.455-2.453h38.026a2.454 2.454 0 0 1 0 4.908h-38.026a2.454 2.454 0 0 1-2.455-2.454"/><path fill="#d0d0ce" d="M180.732 78.5a2.454 2.454 0 0 1 2.455-2.454h44.589a2.454 2.454 0 1 1 0 4.908h-44.589a2.455 2.455 0 0 1-2.455-2.454M180.732 102.779a2.455 2.455 0 0 1 2.455-2.454h35.603a2.454 2.454 0 1 1 0 4.908h-35.603a2.454 2.454 0 0 1-2.455-2.454"/><path fill="#467aa5" d="M110.565 54.72a2.455 2.455 0 0 1 2.455-2.453h31.974a2.454 2.454 0 1 1 0 4.908H113.02a2.454 2.454 0 0 1-2.455-2.454"/><rect width="209.5" height="73" x="31.25" y="42" stroke="#d0d0ce" rx="2.5"/><path fill="#d0d0ce" d="M110.565 78.5a2.454 2.454 0 0 1 2.455-2.454h38.276a2.454 2.454 0 0 1 0 4.908H113.02a2.455 2.455 0 0 1-2.455-2.454M110.565 102.779a2.455 2.455 0 0 1 2.455-2.454h26.303a2.454 2.454 0 0 1 0 4.908H113.02a2.454 2.454 0 0 1-2.455-2.454"/><path stroke="#d0d0ce" d="M30.75 66h210.5M30.75 90.5h210.5"/></svg>
